icons/modern/high-speed-train.svg

<svg width="32" height="32" viewBox="0 0 32 32" fill="none" xmlns="http://www.w3.org/2000/svg">
<path d="M29.99 21H2.00995V24H29.99V21Z" fill="url(#paint0_linear_18_9167)"/>
<path d="M29.99 21H2.00995V24H29.99V21Z" fill="url(#paint1_radial_18_9167)"/>
<path d="M4.00995 30V24H7.00995V30H4.00995Z" fill="url(#paint2_radial_18_9167)"/>
<path d="M11.0099 30V24H14.0099V30H11.0099Z" fill="url(#paint3_radial_18_9167)"/>
<path d="M17.9999 30V24H20.9899V30H17.9999Z" fill="url(#paint4_radial_18_9167)"/>
<path d="M24.9899 30V24H27.9899V30H24.9899Z" fill="url(#paint5_radial_18_9167)"/>
<g filter="url(#filter0_i_18_9167)">
<path d="M29.99 21H9.00995L10.41 22.41C10.79 22.79 11.2999 23 11.8299 23H29.9999V21H29.99Z" fill="url(#paint6_linear_18_9167)"/>
<path d="M29.99 21H9.00995L10.41 22.41C10.79 22.79 11.2999 23 11.8299 23H29.9999V21H29.99Z" fill="url(#paint7_linear_18_9167)"/>
</g>
<g filter="url(#filter1_i_18_9167)">
<path d="M15.0999 8.52C15.6799 8.18 16.3499 8 17.0199 8H29.99V21H7.81995C5.70995 21 4.00995 19.29 4.00995 17.19C4.00995 15.9 4.65995 14.7 5.72995 14L15.0999 8.52Z" fill="url(#paint8_linear_18_9167)"/>
<path d="M15.0999 8.52C15.6799 8.18 16.3499 8 17.0199 8H29.99V21H7.81995C5.70995 21 4.00995 19.29 4.00995 17.19C4.00995 15.9 4.65995 14.7 5.72995 14L15.0999 8.52Z" fill="url(#paint9_linear_18_9167)"/>
</g>
<path d="M15.0999 8.52C15.6799 8.18 16.3499 8 17.0199 8H29.99V21H7.81995C5.70995 21 4.00995 19.29 4.00995 17.19C4.00995 15.9 4.65995 14.7 5.72995 14L15.0999 8.52Z" fill="url(#paint10_linear_18_9167)"/>
<g filter="url(#filter2_i_18_9167)">
<path d="M7.81993 21H29.9899V19H4.48993C5.12993 20.19 6.37993 21 7.81993 21Z" fill="url(#paint11_linear_18_9167)"/>
</g>
<path d="M4.48997 19H30V18H4.09998C4.17998 18.36 4.31997 18.69 4.48997 19Z" fill="url(#paint12_linear_18_9167)"/>
<g filter="url(#filter3_i_18_9167)">
<path d="M12.9999 17H10.9999C10.4499 17 9.99994 16.55 9.99994 16C9.99994 15.45 10.4499 15 10.9999 15H12.9999C13.5499 15 13.9999 15.45 13.9999 16C13.9999 16.56 13.5499 17 12.9999 17Z" fill="url(#paint13_radial_18_9167)"/>
</g>
<path d="M29.9899 14H22.9399C22.4099 14 21.9899 13.57 21.9899 13.05V9.96001C21.9899 9.43001 22.4199 9.01001 22.9399 9.01001H29.9899V14Z" fill="url(#paint14_radial_18_9167)"/>
<path d="M29.9899 14H22.9399C22.4099 14 21.9899 13.57 21.9899 13.05V9.96001C21.9899 9.43001 22.4199 9.01001 22.9399 9.01001H29.9899V14Z" fill="url(#paint15_linear_18_9167)"/>
<path d="M29.9899 14H22.9399C22.4099 14 21.9899 13.57 21.9899 13.05V9.96001C21.9899 9.43001 22.4199 9.01001 22.9399 9.01001H29.9899V14Z" fill="url(#paint16_linear_18_9167)"/>
<path d="M18.0499 9H14.2899L7.61993 12.9C7.61993 12.9 5.75993 13.99 5.73993 14H18.0599C18.5899 14 19.0099 13.57 19.0099 13.05V9.96C18.9999 9.43 18.5699 9 18.0499 9Z" fill="url(#paint17_linear_18_9167)"/>
<path d="M18.0499 9H14.2899L7.61993 12.9C7.61993 12.9 5.75993 13.99 5.73993 14H18.0599C18.5899 14 19.0099 13.57 19.0099 13.05V9.96C18.9999 9.43 18.5699 9 18.0499 9Z" fill="url(#paint18_linear_18_9167)"/>
<path d="M18.0499 9H14.2899L7.61993 12.9C7.61993 12.9 5.75993 13.99 5.73993 14H18.0599C18.5899 14 19.0099 13.57 19.0099 13.05V9.96C18.9999 9.43 18.5699 9 18.0499 9Z" fill="url(#paint19_linear_18_9167)"/>
<path d="M18.0499 9H14.2899L7.61993 12.9C7.61993 12.9 5.75993 13.99 5.73993 14H18.0599C18.5899 14 19.0099 13.57 19.0099 13.05V9.96C18.9999 9.43 18.5699 9 18.0499 9Z" fill="url(#paint20_linear_18_9167)"/>
<defs>
<filter id="filter0_i_18_9167" x="9.00995" y="20.7" width="21.29" height="2.3" filterUnits="userSpaceOnUse" color-interpolation-filters="sRGB">
<feFlood flood-opacity="0" result="BackgroundImageFix"/>
<feBlend mode="normal" in="SourceGraphic" in2="BackgroundImageFix" result="shape"/>
<feColorMatrix in="SourceAlpha" type="matrix" values="0 0 0 0 0 0 0 0 0 0 0 0 0 0 0 0 0 0 127 0" result="hardAlpha"/>
<feOffset dx="0.3" dy="-0.3"/>
<feGaussianBlur stdDeviation="0.375"/>
<feComposite in2="hardAlpha" operator="arithmetic" k2="-1" k3="1"/>
<feColorMatrix type="matrix" values="0 0 0 0 0.192157 0 0 0 0 0.313726 0 0 0 0 0.623529 0 0 0 1 0"/>
<feBlend mode="normal" in2="shape" result="effect1_innerShadow_18_9167"/>
</filter>
<filter id="filter1_i_18_9167" x="4.00995" y="8" width="26.78" height="13" filterUnits="userSpaceOnUse" color-interpolation-filters="sRGB">
<feFlood flood-opacity="0" result="BackgroundImageFix"/>
<feBlend mode="normal" in="SourceGraphic" in2="BackgroundImageFix" result="shape"/>
<feColorMatrix in="SourceAlpha" type="matrix" values="0 0 0 0 0 0 0 0 0 0 0 0 0 0 0 0 0 0 127 0" result="hardAlpha"/>
<feOffset dx="0.8"/>
<feGaussianBlur stdDeviation="0.6"/>
<feComposite in2="hardAlpha" operator="arithmetic" k2="-1" k3="1"/>
<feColorMatrix type="matrix" values="0 0 0 0 0.670588 0 0 0 0 0.631373 0 0 0 0 0.65098 0 0 0 1 0"/>
<feBlend mode="normal" in2="shape" result="effect1_innerShadow_18_9167"/>
</filter>
<filter id="filter2_i_18_9167" x="4.48993" y="18.8" width="26.5" height="2.2" filterUnits="userSpaceOnUse" color-interpolation-filters="sRGB">
<feFlood flood-opacity="0" result="BackgroundImageFix"/>
<feBlend mode="normal" in="SourceGraphic" in2="BackgroundImageFix" result="shape"/>
<feColorMatrix in="SourceAlpha" type="matrix" values="0 0 0 0 0 0 0 0 0 0 0 0 0 0 0 0 0 0 127 0" result="hardAlpha"/>
<feOffset dx="1" dy="-0.2"/>
<feGaussianBlur stdDeviation="0.5"/>
<feComposite in2="hardAlpha" operator="arithmetic" k2="-1" k3="1"/>
<feColorMatrix type="matrix" values="0 0 0 0 0.141176 0 0 0 0 0.317647 0 0 0 0 0.607843 0 0 0 1 0"/>
<feBlend mode="normal" in2="shape" result="effect1_innerShadow_18_9167"/>
</filter>
<filter id="filter3_i_18_9167" x="9.99994" y="15" width="4" height="2" filterUnits="userSpaceOnUse" color-interpolation-filters="sRGB">
<feFlood flood-opacity="0" result="BackgroundImageFix"/>
<feBlend mode="normal" in="SourceGraphic" in2="BackgroundImageFix" result="shape"/>
<feColorMatrix in="SourceAlpha" type="matrix" values="0 0 0 0 0 0 0 0 0 0 0 0 0 0 0 0 0 0 127 0" result="hardAlpha"/>
<feOffset/>
<feGaussianBlur stdDeviation="0.2"/>
<feComposite in2="hardAlpha" operator="arithmetic" k2="-1" k3="1"/>
<feColorMatrix type="matrix" values="0 0 0 0 0.909804 0 0 0 0 0.180392 0 0 0 0 0.0666667 0 0 0 1 0"/>
<feBlend mode="normal" in2="shape" result="effect1_innerShadow_18_9167"/>
</filter>
<linearGradient id="paint0_linear_18_9167" x1="29.99" y1="22.5013" x2="2.00995" y2="22.5013" gradientUnits="userSpaceOnUse">
<stop stop-color="#532B82"/>
<stop offset="1" stop-color="#231535"/>
</linearGradient>
<radialGradient id="paint1_radial_18_9167" cx="0" cy="0" r="1" gradientUnits="userSpaceOnUse" gradientTransform="translate(10.9648 22.3437) rotate(180) scale(9.46875 1.94032)">
<stop stop-color="#40305B"/>
<stop offset="1" stop-color="#3D2D57" stop-opacity="0"/>
</radialGradient>
<radialGradient id="paint2_radial_18_9167" cx="0" cy="0" r="1" gradientUnits="userSpaceOnUse" gradientTransform="translate(6.77734 29.7812) rotate(-90) scale(6.9375 2.96875)">
<stop offset="0.40991" stop-color="#5B4080"/>
<stop offset="1" stop-color="#2D203F"/>
</radialGradient>
<radialGradient id="paint3_radial_18_9167" cx="0" cy="0" r="1" gradientUnits="userSpaceOnUse" gradientTransform="translate(13.7773 29.7812) rotate(-90) scale(6.9375 2.96875)">
<stop offset="0.40991" stop-color="#5B4080"/>
<stop offset="1" stop-color="#2D203F"/>
</radialGradient>
<radialGradient id="paint4_radial_18_9167" cx="0" cy="0" r="1" gradientUnits="userSpaceOnUse" gradientTransform="translate(20.7581 29.7812) rotate(-90) scale(6.9375 2.95885)">
<stop offset="0.40991" stop-color="#5B4080"/>
<stop offset="1" stop-color="#2D203F"/>
</radialGradient>
<radialGradient id="paint5_radial_18_9167" cx="0" cy="0" r="1" gradientUnits="userSpaceOnUse" gradientTransform="translate(27.7573 29.7812) rotate(-90) scale(6.9375 2.96875)">
<stop offset="0.40991" stop-color="#5B4080"/>
<stop offset="1" stop-color="#2D203F"/>
</radialGradient>
<linearGradient id="paint6_linear_18_9167" x1="29.9999" y1="22.0032" x2="10.7193" y2="22.0032" gradientUnits="userSpaceOnUse">
<stop stop-color="#409FFB"/>
<stop offset="1" stop-color="#456BB0"/>
</linearGradient>
<linearGradient id="paint7_linear_18_9167" x1="19.5049" y1="20.6875" x2="19.5049" y2="21.1719" gradientUnits="userSpaceOnUse">
<stop stop-color="#295BB2"/>
<stop offset="1" stop-color="#295BB2" stop-opacity="0"/>
</linearGradient>
<linearGradient id="paint8_linear_18_9167" x1="23.6266" y1="16.1835" x2="23.6266" y2="8" gradientUnits="userSpaceOnUse">
<stop stop-color="#ECDFF2"/>
<stop offset="1" stop-color="#F4F4F4"/>
<stop offset="1" stop-color="#EFE8F1"/>
</linearGradient>
<linearGradient id="paint9_linear_18_9167" x1="4.6442" y1="21" x2="16.2786" y2="21" gradientUnits="userSpaceOnUse">
<stop stop-color="#D7CCD7"/>
<stop offset="1" stop-color="#D7CCD7" stop-opacity="0"/>
</linearGradient>
<linearGradient id="paint10_linear_18_9167" x1="29.99" y1="15.6332" x2="29.8073" y2="15.6332" gradientUnits="userSpaceOnUse">
<stop stop-color="#F0EFF1"/>
<stop offset="1" stop-color="#F0EFF1" stop-opacity="0"/>
</linearGradient>
<linearGradient id="paint11_linear_18_9167" x1="17.2399" y1="19.2886" x2="17.2399" y2="21" gradientUnits="userSpaceOnUse">
<stop offset="0.352902" stop-color="#50A9E4"/>
<stop offset="1" stop-color="#3D7AC3"/>
</linearGradient>
<linearGradient id="paint12_linear_18_9167" x1="30" y1="18.503" x2="4.09998" y2="18.5" gradientUnits="userSpaceOnUse">
<stop stop-color="#6CF0FF"/>
<stop offset="0.930352" stop-color="#70FBFF"/>
<stop offset="0.991717" stop-color="#5DC9ED"/>
</linearGradient>
<radialGradient id="paint13_radial_18_9167" cx="0" cy="0" r="1" gradientUnits="userSpaceOnUse" gradientTransform="translate(10.5228 16.003) scale(3.75568 1.64929)">
<stop stop-color="#FF6D46"/>
<stop offset="1" stop-color="#F43A21"/>
</radialGradient>
<radialGradient id="paint14_radial_18_9167" cx="0" cy="0" r="1" gradientUnits="userSpaceOnUse" gradientTransform="translate(24.0857 8.03614) rotate(88.3397) scale(4.38841 7.64789)">
<stop offset="0.117309" stop-color="#0686FB"/>
<stop offset="1" stop-color="#50E9FF"/>
</radialGradient>
<linearGradient id="paint15_linear_18_9167" x1="25.9899" y1="8.50144" x2="25.9899" y2="9.87494" gradientUnits="userSpaceOnUse">
<stop stop-color="#037FF5"/>
<stop offset="1" stop-color="#037FF5" stop-opacity="0"/>
</linearGradient>
<linearGradient id="paint16_linear_18_9167" x1="25.9899" y1="14.2785" x2="25.9899" y2="13.2579" gradientUnits="userSpaceOnUse">
<stop stop-color="#2DD4FF"/>
<stop offset="1" stop-color="#2DD4FF" stop-opacity="0"/>
</linearGradient>
<linearGradient id="paint17_linear_18_9167" x1="8.81338" y1="14" x2="19.4164" y2="10.2961" gradientUnits="userSpaceOnUse">
<stop stop-color="#59FDFF"/>
<stop offset="1" stop-color="#218FEA"/>
</linearGradient>
<linearGradient id="paint18_linear_18_9167" x1="14.4912" y1="14.3663" x2="14.4912" y2="13.135" gradientUnits="userSpaceOnUse">
<stop stop-color="#1C9CE3"/>
<stop offset="1" stop-color="#1C9CE3" stop-opacity="0"/>
</linearGradient>
<linearGradient id="paint19_linear_18_9167" x1="5.25623" y1="14.7426" x2="12.3749" y2="14" gradientUnits="userSpaceOnUse">
<stop stop-color="#5BFFFF"/>
<stop offset="1" stop-color="#5BFFFF" stop-opacity="0"/>
</linearGradient>
<linearGradient id="paint20_linear_18_9167" x1="14.3543" y1="8.31231" x2="14.3543" y2="10.6724" gradientUnits="userSpaceOnUse">
<stop stop-color="#047DE4"/>
<stop offset="1" stop-color="#047DE4" stop-opacity="0"/>
</linearGradient>
</defs>
</svg>

<svg width="32" height="32" fill="none" xmlns="http://www.w3.org/2000/svg"><path d="M29.99 21H2.01v3h27.98v-3Z" fill="url(#a)"/><path d="M29.99 21H2.01v3h27.98v-3Z" fill="url(#b)"/><path d="M4.01 30v-6h3v6h-3Z" fill="url(#c)"/><path d="M11.01 30v-6h3v6h-3Z" fill="url(#d)"/><path d="M18 30v-6h2.99v6H18Z" fill="url(#e)"/><path d="M24.99 30v-6h3v6h-3Z" fill="url(#f)"/><g filter="url(#g)"><path d="M29.99 21H9.01l1.4 1.41c.38.38.89.59 1.42.59H30v-2h-.01Z" fill="url(#h)"/><path d="M29.99 21H9.01l1.4 1.41c.38.38.89.59 1.42.59H30v-2h-.01Z" fill="url(#i)"/></g><g filter="url(#j)"><path d="M15.1 8.52c.58-.34 1.25-.52 1.92-.52h12.97v13H7.82c-2.11 0-3.81-1.71-3.81-3.81 0-1.29.65-2.49 1.72-3.19l9.37-5.48Z" fill="url(#k)"/><path d="M15.1 8.52c.58-.34 1.25-.52 1.92-.52h12.97v13H7.82c-2.11 0-3.81-1.71-3.81-3.81 0-1.29.65-2.49 1.72-3.19l9.37-5.48Z" fill="url(#l)"/></g><path d="M15.1 8.52c.58-.34 1.25-.52 1.92-.52h12.97v13H7.82c-2.11 0-3.81-1.71-3.81-3.81 0-1.29.65-2.49 1.72-3.19l9.37-5.48Z" fill="url(#m)"/><g filter="url(#n)"><path d="M7.82 21h22.17v-2H4.49c.64 1.19 1.89 2 3.33 2Z" fill="url(#o)"/></g><path d="M4.49 19H30v-1H4.1c.08.36.22.69.39 1Z" fill="url(#p)"/><g filter="url(#q)"><path d="M13 17h-2c-.55 0-1-.45-1-1s.45-1 1-1h2c.55 0 1 .45 1 1 0 .56-.45 1-1 1Z" fill="url(#r)"/></g><path d="M29.99 14h-7.05a.95.95 0 0 1-.95-.95V9.96c0-.53.43-.95.95-.95h7.05V14Z" fill="url(#s)"/><path d="M29.99 14h-7.05a.95.95 0 0 1-.95-.95V9.96c0-.53.43-.95.95-.95h7.05V14Z" fill="url(#t)"/><path d="M29.99 14h-7.05a.95.95 0 0 1-.95-.95V9.96c0-.53.43-.95.95-.95h7.05V14Z" fill="url(#u)"/><path d="M18.05 9h-3.76l-6.67 3.9S5.76 13.99 5.74 14h12.32c.53 0 .95-.43.95-.95V9.96a.973.973 0 0 0-.96-.96Z" fill="url(#v)"/><path d="M18.05 9h-3.76l-6.67 3.9S5.76 13.99 5.74 14h12.32c.53 0 .95-.43.95-.95V9.96a.973.973 0 0 0-.96-.96Z" fill="url(#w)"/><path d="M18.05 9h-3.76l-6.67 3.9S5.76 13.99 5.74 14h12.32c.53 0 .95-.43.95-.95V9.96a.973.973 0 0 0-.96-.96Z" fill="url(#x)"/><path d="M18.05 9h-3.76l-6.67 3.9S5.76 13.99 5.74 14h12.32c.53 0 .95-.43.95-.95V9.96a.973.973 0 0 0-.96-.96Z" fill="url(#y)"/><defs><linearGradient id="a" x1="29.99" y1="22.501" x2="2.01" y2="22.501" gradientUnits="userSpaceOnUse"><stop stop-color="#532B82"/><stop offset="1" stop-color="#231535"/></linearGradient><linearGradient id="h" x1="30" y1="22.003" x2="10.719" y2="22.003" gradientUnits="userSpaceOnUse"><stop stop-color="#409FFB"/><stop offset="1" stop-color="#456BB0"/></linearGradient><linearGradient id="i" x1="19.505" y1="20.688" x2="19.505" y2="21.172" gradientUnits="userSpaceOnUse"><stop stop-color="#295BB2"/><stop offset="1" stop-color="#295BB2" stop-opacity="0"/></linearGradient><linearGradient id="k" x1="23.627" y1="16.183" x2="23.627" y2="8" gradientUnits="userSpaceOnUse"><stop stop-color="#ECDFF2"/><stop offset="1" stop-color="#F4F4F4"/><stop offset="1" stop-color="#EFE8F1"/></linearGradient><linearGradient id="l" x1="4.644" y1="21" x2="16.279" y2="21" gradientUnits="userSpaceOnUse"><stop stop-color="#D7CCD7"/><stop offset="1" stop-color="#D7CCD7" stop-opacity="0"/></linearGradient><linearGradient id="m" x1="29.99" y1="15.633" x2="29.807" y2="15.633" gradientUnits="userSpaceOnUse"><stop stop-color="#F0EFF1"/><stop offset="1" stop-color="#F0EFF1" stop-opacity="0"/></linearGradient><linearGradient id="o" x1="17.24" y1="19.289" x2="17.24" y2="21" gradientUnits="userSpaceOnUse"><stop offset=".353" stop-color="#50A9E4"/><stop offset="1" stop-color="#3D7AC3"/></linearGradient><linearGradient id="p" x1="30" y1="18.503" x2="4.1" y2="18.5" gradientUnits="userSpaceOnUse"><stop stop-color="#6CF0FF"/><stop offset=".93" stop-color="#70FBFF"/><stop offset=".992" stop-color="#5DC9ED"/></linearGradient><linearGradient id="t" x1="25.99" y1="8.501" x2="25.99" y2="9.875" gradientUnits="userSpaceOnUse"><stop stop-color="#037FF5"/><stop offset="1" stop-color="#037FF5" stop-opacity="0"/></linearGradient><linearGradient id="u" x1="25.99" y1="14.278" x2="25.99" y2="13.258" gradientUnits="userSpaceOnUse"><stop stop-color="#2DD4FF"/><stop offset="1" stop-color="#2DD4FF" stop-opacity="0"/></linearGradient><linearGradient id="v" x1="8.813" y1="14" x2="19.416" y2="10.296" gradientUnits="userSpaceOnUse"><stop stop-color="#59FDFF"/><stop offset="1" stop-color="#218FEA"/></linearGradient><linearGradient id="w" x1="14.491" y1="14.366" x2="14.491" y2="13.135" gradientUnits="userSpaceOnUse"><stop stop-color="#1C9CE3"/><stop offset="1" stop-color="#1C9CE3" stop-opacity="0"/></linearGradient><linearGradient id="x" x1="5.256" y1="14.743" x2="12.375" y2="14" gradientUnits="userSpaceOnUse"><stop stop-color="#5BFFFF"/><stop offset="1" stop-color="#5BFFFF" stop-opacity="0"/></linearGradient><linearGradient id="y" x1="14.354" y1="8.312" x2="14.354" y2="10.672" gradientUnits="userSpaceOnUse"><stop stop-color="#047DE4"/><stop offset="1" stop-color="#047DE4" stop-opacity="0"/></linearGradient><radialGradient id="b" cx="0" cy="0" r="1" gradientUnits="userSpaceOnUse" gradientTransform="matrix(-9.46875 0 0 -1.94032 10.965 22.344)"><stop stop-color="#40305B"/><stop offset="1" stop-color="#3D2D57" stop-opacity="0"/></radialGradient><radialGradient id="c" cx="0" cy="0" r="1" gradientUnits="userSpaceOnUse" gradientTransform="matrix(0 -6.9375 2.96875 0 6.777 29.781)"><stop offset=".41" stop-color="#5B4080"/><stop offset="1" stop-color="#2D203F"/></radialGradient><radialGradient id="d" cx="0" cy="0" r="1" gradientUnits="userSpaceOnUse" gradientTransform="matrix(0 -6.9375 2.96875 0 13.777 29.781)"><stop offset=".41" stop-color="#5B4080"/><stop offset="1" stop-color="#2D203F"/></radialGradient><radialGradient id="e" cx="0" cy="0" r="1" gradientUnits="userSpaceOnUse" gradientTransform="matrix(0 -6.9375 2.95885 0 20.758 29.781)"><stop offset=".41" stop-color="#5B4080"/><stop offset="1" stop-color="#2D203F"/></radialGradient><radialGradient id="f" cx="0" cy="0" r="1" gradientUnits="userSpaceOnUse" gradientTransform="matrix(0 -6.9375 2.96875 0 27.757 29.781)"><stop offset=".41" stop-color="#5B4080"/><stop offset="1" stop-color="#2D203F"/></radialGradient><radialGradient id="r" cx="0" cy="0" r="1" gradientUnits="userSpaceOnUse" gradientTransform="matrix(3.75568 0 0 1.64929 10.523 16.003)"><stop stop-color="#FF6D46"/><stop offset="1" stop-color="#F43A21"/></radialGradient><radialGradient id="s" cx="0" cy="0" r="1" gradientUnits="userSpaceOnUse" gradientTransform="rotate(88.34 7.907 16.415) scale(4.38841 7.64789)"><stop offset=".117" stop-color="#0686FB"/><stop offset="1" stop-color="#50E9FF"/></radialGradient><filter id="g" x="9.01" y="20.7" width="21.29" height="2.3" filterUnits="userSpaceOnUse" color-interpolation-filters="sRGB"><feFlood flood-opacity="0" result="BackgroundImageFix"/><feBlend in="SourceGraphic" in2="BackgroundImageFix" result="shape"/><feColorMatrix in="SourceAlpha" values="0 0 0 0 0 0 0 0 0 0 0 0 0 0 0 0 0 0 127 0" result="hardAlpha"/><feOffset dx=".3" dy="-.3"/><feGaussianBlur stdDeviation=".375"/><feComposite in2="hardAlpha" operator="arithmetic" k2="-1" k3="1"/><feColorMatrix values="0 0 0 0 0.192157 0 0 0 0 0.313726 0 0 0 0 0.623529 0 0 0 1 0"/><feBlend in2="shape" result="effect1_innerShadow_18_9167"/></filter><filter id="j" x="4.01" y="8" width="26.78" height="13" filterUnits="userSpaceOnUse" color-interpolation-filters="sRGB"><feFlood flood-opacity="0" result="BackgroundImageFix"/><feBlend in="SourceGraphic" in2="BackgroundImageFix" result="shape"/><feColorMatrix in="SourceAlpha" values="0 0 0 0 0 0 0 0 0 0 0 0 0 0 0 0 0 0 127 0" result="hardAlpha"/><feOffset dx=".8"/><feGaussianBlur stdDeviation=".6"/><feComposite in2="hardAlpha" operator="arithmetic" k2="-1" k3="1"/><feColorMatrix values="0 0 0 0 0.670588 0 0 0 0 0.631373 0 0 0 0 0.65098 0 0 0 1 0"/><feBlend in2="shape" result="effect1_innerShadow_18_9167"/></filter><filter id="n" x="4.49" y="18.8" width="26.5" height="2.2" filterUnits="userSpaceOnUse" color-interpolation-filters="sRGB"><feFlood flood-opacity="0" result="BackgroundImageFix"/><feBlend in="SourceGraphic" in2="BackgroundImageFix" result="shape"/><feColorMatrix in="SourceAlpha" values="0 0 0 0 0 0 0 0 0 0 0 0 0 0 0 0 0 0 127 0" result="hardAlpha"/><feOffset dx="1" dy="-.2"/><feGaussianBlur stdDeviation=".5"/><feComposite in2="hardAlpha" operator="arithmetic" k2="-1" k3="1"/><feColorMatrix values="0 0 0 0 0.141176 0 0 0 0 0.317647 0 0 0 0 0.607843 0 0 0 1 0"/><feBlend in2="shape" result="effect1_innerShadow_18_9167"/></filter><filter id="q" x="10" y="15" width="4" height="2" filterUnits="userSpaceOnUse" color-interpolation-filters="sRGB"><feFlood flood-opacity="0" result="BackgroundImageFix"/><feBlend in="SourceGraphic" in2="BackgroundImageFix" result="shape"/><feColorMatrix in="SourceAlpha" values="0 0 0 0 0 0 0 0 0 0 0 0 0 0 0 0 0 0 127 0" result="hardAlpha"/><feOffset/><feGaussianBlur stdDeviation=".2"/><feComposite in2="hardAlpha" operator="arithmetic" k2="-1" k3="1"/><feColorMatrix values="0 0 0 0 0.909804 0 0 0 0 0.180392 0 0 0 0 0.0666667 0 0 0 1 0"/><feBlend in2="shape" result="effect1_innerShadow_18_9167"/></filter></defs></svg>
